X:46
M:6/8
L:1/8
Q:3/8=100
K:G
d2 d def|gfe dBG|BBB ccc|efg dBG|d2 d def|gfe dBG|efg BdB|G2 G G3:|

